digital/Imbassy-X-Files/65ef0811cc67439994568a45/65ef0811cc67439994568f5d_google-partner.svg

<svg fill="none" height="56" viewBox="0 0 85 56" width="85" xmlns="http://www.w3.org/2000/svg"><g fill="#fff"><path d="m19.9944 35.8078v6.1828h-1.9475v-15.2562h5.1733c1.3183 0 2.4268.4416 3.3457 1.3249.9287.8832 1.3981 1.9572 1.3981 3.2218 0 1.2647-.4694 2.3688-1.3981 3.242-.9089.8631-2.0174 1.3048-3.3457 1.3048h-3.2258zm0-7.2065v5.3296h3.2657c.779 0 1.4182-.261 1.9275-.7929.5194-.522.789-1.1543.789-1.8769 0-.7227-.2597-1.3249-.789-1.8569-.5093-.542-1.1485-.813-1.9275-.813h-3.2657z"/><path d="m33.1769 31.2112c1.4382 0 2.5767.3915 3.4156 1.1643.8289.7728 1.2484 1.8368 1.2484 3.1817v6.4337h-1.8676v-1.4453h-.0799c-.8089 1.1944-1.8776 1.7866-3.2258 1.7866-1.1485 0-2.1073-.3413-2.8763-1.0238s-1.1585-1.5357-1.1585-2.5594c0-1.084.4095-1.9372 1.2184-2.5795.809-.6424 1.8976-.9636 3.2558-.9636 1.1585 0 2.1173.2108 2.8663.6424v-.4517c0-.6825-.2696-1.2646-.8089-1.7364-.5393-.4717-1.1685-.7126-1.8876-.7126-1.0886 0-1.9475.4617-2.5867 1.3851l-1.7177-1.084c.9487-1.365 2.3469-2.0475 4.1945-2.0475zm-2.5267 7.588c0 .5119.2197.9334.6492 1.2747.4294.3412.9387.5118 1.518.5118.8189 0 1.548-.3011 2.1972-.9133.6391-.6123.9687-1.3249.9687-2.1479-.6092-.4818-1.4581-.7227-2.5467-.7227-.789 0-1.4481.1907-1.9874.5721-.5293.3814-.799.8632-.799 1.4253z"/><path d="m40.0488 31.5514h1.8676v1.7063h.0799c.5793-1.3349 1.7777-2.0074 3.5854-2.0074l.3995.0401v2.0476l-.8689-.0803c-.9088 0-1.6479.281-2.2371.8431-.5893.5621-.8789 1.2747-.8789 2.1379v5.7512h-1.9475zm12.1743 10.6091c-.8489 0-1.548-.261-2.1073-.7929-.5593-.522-.8489-1.2547-.8589-2.1981v-5.8416h-1.8276v-1.7865h1.8276v-3.1918h1.9475v3.1918h2.5467v1.7865h-2.5467v5.1992c0 .6926.1298 1.1643.3995 1.4152.2696.2509.5692.3714.9088.3714.1598 0 .3096-.0201.4594-.0502.1498-.0401.2896-.0803.4095-.1405l.6192 1.7464c-.5094.1807-1.0986.2811-1.7777.2811z"/><path d="m55.7178 31.5522h1.8676v1.4453h.0799c.2996-.5119.749-.9334 1.3682-1.2747.6192-.3412 1.2584-.5119 1.9175-.5119 1.2684 0 2.2471.3614 2.9362 1.0941s1.0287 1.7765 1.0287 3.1215v6.5642h-1.9475v-6.4338c-.04-1.7062-.8988-2.5594-2.5667-2.5594-.779 0-1.4281.3212-1.9475.9435-.5193.6323-.7889 1.3851-.7889 2.2684v5.7712h-1.9475v-10.4384z"/><path d="m71.8775 42.3319c-1.5281 0-2.7864-.5219-3.7752-1.5758-.9887-1.0539-1.488-2.3788-1.488-3.9847s.4793-2.9107 1.4381-3.9746c.9588-1.0539 2.1872-1.5859 3.6852-1.5859 1.4981 0 2.7665.5019 3.6753 1.5056s1.3682 2.4089 1.3682 4.2055l-.02.2108h-8.1594c.03 1.0237.3695 1.8468 1.0187 2.4691.6491.6222 1.4281.9334 2.3369.9334 1.2484 0 2.2172-.6223 2.9263-1.8769l1.7377.8531c-.4694.8833-1.1086 1.5658-1.9375 2.0676-.8289.5019-1.7677.7428-2.8063.7428zm-3.116-6.8151h5.9623c-.06-.7227-.3496-1.3249-.8789-1.7966-.5293-.4718-1.2384-.7126-2.1272-.7126-.7391 0-1.3683.2308-1.8976.6825-.5293.4516-.8788 1.0639-1.0486 1.8367z"/><path d="m80.5256 41.9912h-1.9475v-10.4384h1.8676v1.7063h.0799c.1997-.5521.6092-1.0238 1.2184-1.4152.6192-.3915 1.2184-.5822 1.8177-.5822.5992 0 1.0486.0803 1.4381.2509l-.5892 1.897c-.2397-.1003-.6192-.1505-1.1485-.1505-.7391 0-1.3783.3011-1.9176.8933-.5492.5921-.8189 1.2947-.8189 2.0877z"/><path d="m22.4605 17.8133v1.3349h3.1659c-.0999.8431-.4494 1.4955-1.0386 1.9572-.5793.4617-1.2884.6926-2.1273.6926-.9787 0-1.7977-.3413-2.4668-1.0338-.6691-.6825-1.0087-1.5156-1.0087-2.5093 0-.9936.3396-1.8267 1.0087-2.5092.6691-.6926 1.4981-1.0338 2.4668-1.0338.9188 0 1.7078.3212 2.3869.9535l.9388-.9435c-.9388-.8933-2.0473-1.3449-3.3257-1.3449-.8689 0-1.6878.2208-2.4568.6624-.769.4316-1.3682 1.0338-1.8077 1.7966-.4294.7427-.6491 1.5457-.6491 2.4089s.2197 1.6762.6491 2.4289c.4295.7528 1.0387 1.345 1.8077 1.7866s1.5879.6625 2.4568.6625c1.3083 0 2.3969-.4116 3.2558-1.2346.8489-.813 1.2783-1.897 1.2783-3.2419 0-.3212-.0199-.5922-.0699-.8331h-4.4542z"/><path d="m30.591 16.8496c-.8888 0-1.6379.3011-2.2371.9033-.5992.5922-.8988 1.335-.8988 2.2383s.2996 1.626.9088 2.2382c.5992.6022 1.3383.9034 2.2271.9034.8889 0 1.6279-.3012 2.2271-.9034.6093-.6122.9089-1.355.9089-2.2382 0-.8833-.2996-1.636-.9089-2.2383-.5992-.6022-1.3382-.9033-2.2271-.9033zm1.2384 4.4966c-.3395.3613-.749.542-1.2384.542-.4893 0-.9188-.1807-1.2584-.542-.3395-.3614-.5093-.813-.5093-1.355s.1698-1.0037.5093-1.355c.3396-.3613.7591-.542 1.2584-.542.4994 0 .9188.1807 1.2584.542.3396.3513.5093.8029.5093 1.355 0 .552-.1697.9836-.5193 1.355z"/><path d="m49.4258 13.7168h-1.3682v9.224h1.3682z"/><path d="m37.4309 16.8496c-.8889 0-1.6379.3011-2.2371.9033-.5993.5922-.8989 1.335-.8989 2.2383s.2996 1.626.9088 2.2382c.5993.6022 1.3383.9034 2.2272.9034.8888 0 1.6279-.3012 2.2271-.9034.6092-.6122.9088-1.355.9088-2.2382 0-.8833-.2996-1.636-.9088-2.2383-.5992-.6022-1.3383-.9033-2.2271-.9033zm1.2384 4.4966c-.3396.3613-.7491.542-1.2384.542-.4894 0-.9188-.1807-1.2584-.542-.3396-.3614-.5093-.813-.5093-1.355s.1697-1.0037.5093-1.355c.3396-.3613.759-.542 1.2584-.542.4993 0 .9188.1807 1.2583.542.3396.3513.5094.8029.5094 1.355 0 .552-.1698.9836-.5194 1.355z"/><path d="m53.1909 21.8884c-.6891 0-1.1884-.3211-1.518-.9535l4.1746-1.7364-.1398-.3613c-.1099-.2911-.2497-.5621-.4295-.813-.1797-.2409-.3795-.4617-.6092-.6323-.2297-.1807-.4794-.3112-.759-.4115-.2796-.0904-.5693-.1406-.8789-.1406-.8389 0-1.538.3012-2.1072.8933-.5593.6023-.8389 1.355-.8389 2.2483s.2996 1.636.8888 2.2383c.5892.6022 1.3283.9033 2.2072.9033 1.1085 0 1.9674-.4617 2.5966-1.3951l-1.0686-.7127c-.3895.5822-.8989.8632-1.538.8632zm-1.2683-3.3021c.3495-.3513.729-.5219 1.1585-.5219.2696 0 .5093.0602.7191.1806.2097.1205.3595.2811.4394.4818l-2.7864 1.1643c-.02-.532.1398-.9636.4694-1.3048z"/><path d="m45.8111 17.5522h-.0499c-.3895-.4717-.9388-.7026-1.6479-.7026-.8089 0-1.508.3112-2.1073.9234-.5892.6223-.8888 1.355-.8888 2.2182s.2996 1.5959.8888 2.2081c.6093.6123 1.3083.9134 2.1073.9134.6991 0 1.2484-.2409 1.6479-.7126h.0499v.3211c0 1.3149-.5593 1.9773-1.6678 1.9773-.3596 0-.6692-.1003-.9488-.3111s-.4894-.4718-.6292-.813l-1.1984.5018c.1198.2811.2696.532.4494.7528.1798.2309.3895.4216.6292.5822.2397.1605.4993.291.789.3814.2796.0903.5792.1405.8988.1405.9288 0 1.6578-.2811 2.1772-.8532.5193-.562.7889-1.375.7889-2.4189v-5.6307h-1.2983v.5119zm-.3895 3.804c-.3196.3613-.7191.532-1.1785.532-.4893 0-.8988-.1807-1.2384-.542-.3295-.3614-.4993-.813-.4993-1.345 0-.5319.1698-.9936.5093-1.355.3496-.3713.7591-.562 1.2284-.562.4694 0 .8689.1806 1.1785.542.3196.3713.4894.833.4894 1.365 0 .5319-.1598.9836-.4894 1.355z"/><path d="m9.94713 9h-9.94713v38h9.94713z"/></g></svg>

<svg width="85" height="56" viewBox="0 0 85 56" fill="none" xmlns="http://www.w3.org/2000/svg">
<path d="M19.9944 35.8078V41.9906H18.0469V26.7344H23.2202C24.5385 26.7344 25.647 27.176 26.5659 28.0593C27.4946 28.9425 27.964 30.0165 27.964 31.2811C27.964 32.5458 27.4946 33.6499 26.5659 34.5231C25.657 35.3862 24.5485 35.8279 23.2202 35.8279H19.9944V35.8078ZM19.9944 28.6013V33.9309H23.2601C24.0391 33.9309 24.6783 33.6699 25.1876 33.138C25.707 32.616 25.9766 31.9837 25.9766 31.2611C25.9766 30.5384 25.7169 29.9362 25.1876 29.4042C24.6783 28.8622 24.0391 28.5912 23.2601 28.5912H19.9944V28.6013Z" fill="white"/>
<path d="M33.1769 31.2112C34.6151 31.2112 35.7536 31.6027 36.5925 32.3755C37.4214 33.1483 37.8409 34.2123 37.8409 35.5572V41.9909H35.9733V40.5456H35.8934C35.0845 41.74 34.0158 42.3322 32.6676 42.3322C31.5191 42.3322 30.5603 41.9909 29.7913 41.3084C29.0223 40.6259 28.6328 39.7727 28.6328 38.749C28.6328 37.665 29.0423 36.8118 29.8512 36.1695C30.6602 35.5271 31.7488 35.2059 33.107 35.2059C34.2655 35.2059 35.2243 35.4167 35.9733 35.8483V35.3966C35.9733 34.7141 35.7037 34.132 35.1644 33.6602C34.6251 33.1885 33.9959 32.9476 33.2768 32.9476C32.1882 32.9476 31.3293 33.4093 30.6901 34.3327L28.9724 33.2487C29.9211 31.8837 31.3193 31.2012 33.1669 31.2012L33.1769 31.2112ZM30.6502 38.7992C30.6502 39.3111 30.8699 39.7326 31.2994 40.0739C31.7288 40.4151 32.2381 40.5857 32.8174 40.5857C33.6363 40.5857 34.3654 40.2846 35.0146 39.6724C35.6537 39.0601 35.9833 38.3475 35.9833 37.5245C35.3741 37.0427 34.5252 36.8018 33.4366 36.8018C32.6476 36.8018 31.9885 36.9925 31.4492 37.3739C30.9199 37.7553 30.6502 38.2371 30.6502 38.7992Z" fill="white"/>
<path d="M40.0488 31.5514H41.9164V33.2577H41.9963C42.5756 31.9228 43.774 31.2503 45.5817 31.2503L45.9812 31.2904V33.338L45.1123 33.2577C44.2035 33.2577 43.4644 33.5387 42.8752 34.1008C42.2859 34.6629 41.9963 35.3755 41.9963 36.2387V41.9899H40.0488V31.5514ZM52.2231 42.1605C51.3742 42.1605 50.6751 41.8995 50.1158 41.3676C49.5565 40.8456 49.2669 40.1129 49.2569 39.1695V33.3279H47.4293V31.5414H49.2569V28.3496H51.2044V31.5414H53.7511V33.3279H51.2044V38.5271C51.2044 39.2197 51.3342 39.6914 51.6039 39.9423C51.8735 40.1932 52.1731 40.3137 52.5127 40.3137C52.6725 40.3137 52.8223 40.2936 52.9721 40.2635C53.1219 40.2234 53.2617 40.1832 53.3816 40.123L54.0008 41.8694C53.4914 42.0501 52.9022 42.1505 52.2231 42.1505V42.1605Z" fill="white"/>
<path d="M55.7178 31.5522H57.5854V32.9975H57.6653C57.9649 32.4856 58.4143 32.0641 59.0335 31.7228C59.6527 31.3816 60.2919 31.2109 60.951 31.2109C62.2194 31.2109 63.1981 31.5723 63.8872 32.305C64.5763 33.0377 64.9159 34.0815 64.9159 35.4265V41.9907H62.9684V35.5569C62.9284 33.8507 62.0696 32.9975 60.4017 32.9975C59.6227 32.9975 58.9736 33.3187 58.4542 33.941C57.9349 34.5733 57.6653 35.3261 57.6653 36.2094V41.9806H55.7178V31.5422V31.5522Z" fill="white"/>
<path d="M71.8775 42.3319C70.3494 42.3319 69.0911 41.81 68.1023 40.7561C67.1136 39.7022 66.6143 38.3773 66.6143 36.7714C66.6143 35.1655 67.0936 33.8607 68.0524 32.7968C69.0112 31.7429 70.2396 31.2109 71.7376 31.2109C73.2357 31.2109 74.5041 31.7128 75.4129 32.7165C76.3217 33.7202 76.7811 35.1254 76.7811 36.922L76.7611 37.1328H68.6017C68.6317 38.1565 68.9712 38.9796 69.6204 39.6019C70.2695 40.2241 71.0485 40.5353 71.9573 40.5353C73.2057 40.5353 74.1745 39.913 74.8836 38.6584L76.6213 39.5115C76.1519 40.3948 75.5127 41.0773 74.6838 41.5791C73.8549 42.081 72.9161 42.3219 71.8775 42.3219V42.3319ZM68.7615 35.5168H74.7238C74.6638 34.7941 74.3742 34.1919 73.8449 33.7202C73.3156 33.2484 72.6065 33.0076 71.7177 33.0076C70.9786 33.0076 70.3494 33.2384 69.8201 33.6901C69.2908 34.1417 68.9413 34.754 68.7715 35.5268L68.7615 35.5168Z" fill="white"/>
<path d="M80.5256 41.9912H78.5781V31.5528H80.4457V33.2591H80.5256C80.7253 32.707 81.1348 32.2353 81.744 31.8439C82.3632 31.4524 82.9624 31.2617 83.5617 31.2617C84.1609 31.2617 84.6103 31.342 84.9998 31.5126L84.4106 33.4096C84.1709 33.3093 83.7914 33.2591 83.2621 33.2591C82.523 33.2591 81.8838 33.5602 81.3445 34.1524C80.7953 34.7445 80.5256 35.4471 80.5256 36.2401V41.9912Z" fill="white"/>
<path d="M22.4605 17.8133V19.1482H25.6264C25.5265 19.9913 25.177 20.6437 24.5878 21.1054C24.0085 21.5671 23.2994 21.798 22.4605 21.798C21.4818 21.798 20.6628 21.4567 19.9937 20.7642C19.3246 20.0817 18.985 19.2486 18.985 18.2549C18.985 17.2613 19.3246 16.4282 19.9937 15.7457C20.6628 15.0531 21.4918 14.7119 22.4605 14.7119C23.3793 14.7119 24.1683 15.0331 24.8474 15.6654L25.7862 14.7219C24.8474 13.8286 23.7389 13.377 22.4605 13.377C21.5916 13.377 20.7727 13.5978 20.0037 14.0394C19.2347 14.471 18.6355 15.0732 18.196 15.836C17.7666 16.5787 17.5469 17.3817 17.5469 18.2449C17.5469 19.1081 17.7666 19.9211 18.196 20.6738C18.6255 21.4266 19.2347 22.0188 20.0037 22.4604C20.7727 22.902 21.5916 23.1229 22.4605 23.1229C23.7688 23.1229 24.8574 22.7113 25.7163 21.8883C26.5652 21.0753 26.9946 19.9913 26.9946 18.6464C26.9946 18.3252 26.9747 18.0542 26.9247 17.8133H22.4705H22.4605Z" fill="white"/>
<path d="M30.591 16.8496C29.7022 16.8496 28.9531 17.1507 28.3539 17.7529C27.7547 18.3451 27.4551 19.0879 27.4551 19.9912C27.4551 20.8945 27.7547 21.6172 28.3639 22.2294C28.9631 22.8316 29.7022 23.1328 30.591 23.1328C31.4799 23.1328 32.2189 22.8316 32.8181 22.2294C33.4274 21.6172 33.727 20.8744 33.727 19.9912C33.727 19.1079 33.4274 18.3552 32.8181 17.7529C32.2189 17.1507 31.4799 16.8496 30.591 16.8496ZM31.8294 21.3462C31.4899 21.7075 31.0804 21.8882 30.591 21.8882C30.1017 21.8882 29.6722 21.7075 29.3326 21.3462C28.9931 20.9848 28.8233 20.5332 28.8233 19.9912C28.8233 19.4492 28.9931 18.9875 29.3326 18.6362C29.6722 18.2749 30.0917 18.0942 30.591 18.0942C31.0904 18.0942 31.5098 18.2749 31.8494 18.6362C32.189 18.9875 32.3587 19.4391 32.3587 19.9912C32.3587 20.5432 32.189 20.9748 31.8394 21.3462H31.8294Z" fill="white"/>
<path d="M49.4258 13.7168H48.0576V22.9408H49.4258V13.7168Z" fill="white"/>
<path d="M37.4309 16.8496C36.542 16.8496 35.793 17.1507 35.1938 17.7529C34.5945 18.3451 34.2949 19.0879 34.2949 19.9912C34.2949 20.8945 34.5945 21.6172 35.2037 22.2294C35.803 22.8316 36.542 23.1328 37.4309 23.1328C38.3197 23.1328 39.0588 22.8316 39.658 22.2294C40.2672 21.6172 40.5668 20.8744 40.5668 19.9912C40.5668 19.1079 40.2672 18.3552 39.658 17.7529C39.0588 17.1507 38.3197 16.8496 37.4309 16.8496ZM38.6693 21.3462C38.3297 21.7075 37.9202 21.8882 37.4309 21.8882C36.9415 21.8882 36.5121 21.7075 36.1725 21.3462C35.8329 20.9848 35.6632 20.5332 35.6632 19.9912C35.6632 19.4492 35.8329 18.9875 36.1725 18.6362C36.5121 18.2749 36.9315 18.0942 37.4309 18.0942C37.9302 18.0942 38.3497 18.2749 38.6892 18.6362C39.0288 18.9875 39.1986 19.4391 39.1986 19.9912C39.1986 20.5432 39.0288 20.9748 38.6792 21.3462H38.6693Z" fill="white"/>
<path d="M53.1909 21.8884C52.5018 21.8884 52.0025 21.5673 51.6729 20.9349L55.8475 19.1985L55.7077 18.8372C55.5978 18.5461 55.458 18.2751 55.2782 18.0242C55.0985 17.7833 54.8987 17.5625 54.669 17.3919C54.4393 17.2112 54.1896 17.0807 53.91 16.9804C53.6304 16.89 53.3407 16.8398 53.0311 16.8398C52.1922 16.8398 51.4931 17.141 50.9239 17.7331C50.3646 18.3354 50.085 19.0881 50.085 19.9814C50.085 20.8747 50.3846 21.6174 50.9738 22.2197C51.563 22.8219 52.3021 23.123 53.181 23.123C54.2895 23.123 55.1484 22.6613 55.7776 21.7279L54.709 21.0152C54.3195 21.5974 53.8101 21.8784 53.171 21.8784L53.1909 21.8884ZM51.9226 18.5863C52.2721 18.235 52.6516 18.0644 53.0811 18.0644C53.3507 18.0644 53.5904 18.1246 53.8002 18.245C54.0099 18.3655 54.1597 18.5261 54.2396 18.7268L51.4532 19.8911C51.4332 19.3591 51.593 18.9275 51.9226 18.5863Z" fill="white"/>
<path d="M45.8111 17.5522H45.7612C45.3717 17.0805 44.8224 16.8496 44.1133 16.8496C43.3044 16.8496 42.6053 17.1608 42.006 17.773C41.4168 18.3953 41.1172 19.128 41.1172 19.9912C41.1172 20.8544 41.4168 21.5871 42.006 22.1993C42.6153 22.8116 43.3143 23.1127 44.1133 23.1127C44.8124 23.1127 45.3617 22.8718 45.7612 22.4001H45.8111V22.7212C45.8111 24.0361 45.2518 24.6985 44.1433 24.6985C43.7837 24.6985 43.4741 24.5982 43.1945 24.3874C42.9149 24.1766 42.7051 23.9156 42.5653 23.5744L41.3669 24.0762C41.4867 24.3573 41.6365 24.6082 41.8163 24.829C41.9961 25.0599 42.2058 25.2506 42.4455 25.4112C42.6852 25.5717 42.9448 25.7022 43.2345 25.7926C43.5141 25.8829 43.8137 25.9331 44.1333 25.9331C45.0621 25.9331 45.7911 25.652 46.3105 25.0799C46.8298 24.5179 47.0994 23.7049 47.0994 22.661V17.0303H45.8011V17.5422L45.8111 17.5522ZM45.4216 21.3562C45.102 21.7175 44.7025 21.8882 44.2431 21.8882C43.7538 21.8882 43.3443 21.7075 43.0047 21.3462C42.6752 20.9848 42.5054 20.5332 42.5054 20.0012C42.5054 19.4693 42.6752 19.0076 43.0147 18.6462C43.3643 18.2749 43.7738 18.0842 44.2431 18.0842C44.7125 18.0842 45.112 18.2648 45.4216 18.6262C45.7412 18.9975 45.911 19.4592 45.911 19.9912C45.911 20.5231 45.7512 20.9748 45.4216 21.3462V21.3562Z" fill="white"/>
<path d="M9.94713 9H0V47H9.94713V9Z" fill="white"/>
</svg>
